X: 34803
T: Road To Spencer, The
R: reel
M: 4/4
K: Amixolydian
EAAE A2AB|cdec dcAG|EGGE G2GA|(3BAG ED E2DG|
EAAE A2AB|cdec dcAB|cedc AGEF|1 GA (3BAG A2AG:|2 GA (3BAG A2A2||
e2ef e3f|gedf ecAc|d2de dcde|(3fed ce dcAB|
ceef e2ef|ge df ecAB|cedc AGEF|GA (3BAG ABA2|
e2ef e3f|gedf ecAc|d2d2 dcde|(3fed gf ecAB|
ceef e2ef|ge ae dcAB|cedc AGEF|GA (3BAG A2A2||

